source/img/form-btn-icon.svg

<svg width="16" height="22" viewBox="0 0 16 22" fill="none" xmlns="http://www.w3.org/2000/svg">
<path d="M0.888917 0.916652C0.888917 -3.27826e-07 0.758708 0 0.444458 0C0.289083 0 1.52588e-08 1.63913e-07 1.52588e-08 0.960524C1.52588e-08 1.31905 0.186208 1.79395 0.535166 2.34807C0.763916 1.59341 0.888917 1.11001 0.888917 0.916652Z" transform="translate(7.11108 8.25)" fill="white"/>
<path d="M0.5265 1.67847e-07C0.394125 0.412672 0.245667 0.871019 0.0807502 1.38127C0.0547086 1.46274 0.0277918 1.54331 9.6639e-08 1.62297C0.557292 1.44079 1.14021 1.28816 1.68792 1.1651C1.41275 0.922968 1.20613 0.72961 1.12279 0.643672C0.90975 0.423887 0.710958 0.209473 0.5265 1.67847e-07Z" transform="translate(7.4519 12.5138)" fill="white"/>
<path d="M-3.10262e-07 1.31368C0.0186664 1.3374 0.190542 1.46094 0.444458 1.46094C0.696625 1.46094 1.35679 0.998121 2.02433 3.35693e-07C1.96488 0.0290902 1.90629 0.0572773 1.84854 0.0855077C0.939667 0.529504 -3.10262e-07 0.988754 -3.10262e-07 1.31368Z" transform="translate(3.55566 15.9557)" fill="white"/>
<path d="M15.8693 4.71707L11.4259 0.134836C11.3454 0.0516055 11.2342 0 11.1111 0H1.77779C0.79775 0 0 0.822207 0 1.83335V20.1667C0 21.1778 0.79775 22 1.77779 22H14.2223C15.2023 22 16 21.1778 16 20.1667V5.04165C16 4.91472 15.95 4.80004 15.8693 4.71707ZM12 15.5833C11.602 15.5833 10.7804 15.019 10.0365 14.429C9.10808 14.6076 7.93188 14.8927 6.98567 15.2776C6.07421 17.1951 4.82638 18.3333 4 18.3333C3.35896 18.3333 2.66667 17.9265 2.66667 17.2694C2.66667 16.3644 3.60417 15.9061 5.02346 15.2132C5.33467 15.061 5.67017 14.8972 6.02346 14.715C6.12154 14.6645 6.22313 14.6156 6.32771 14.5678C6.45617 14.2715 6.57771 13.951 6.68971 13.605C6.92233 12.884 7.12937 12.2443 7.30558 11.6898C6.58554 10.7248 6.22225 9.8945 6.22225 9.21057C6.22225 7.65922 6.9475 7.33335 7.55558 7.33335C8.35592 7.33335 8.88892 7.6453 8.88892 9.1667C8.88892 9.52475 8.70967 10.1966 8.30079 11.4996C8.56296 11.8218 8.86458 12.1602 9.20312 12.5093C9.46354 12.7779 9.85458 13.1212 10.266 13.4551C10.8954 13.3463 11.3763 13.2917 11.5555 13.2917C12.1328 13.2917 13.3333 13.2917 13.3333 14.3753C13.3333 14.9263 13.102 15.5833 12 15.5833ZM12.4445 4.58335C11.954 4.58335 11.5556 4.17201 11.5556 3.6667V1.56479L14.4827 4.58335H12.4445Z" fill="white"/>
<path d="M0.269959 -3.35693e-07C0.217875 -3.35693e-07 0.125417 0.00717545 1.6276e-07 0.021484C0.3455 0.264086 0.625417 0.434156 0.746542 0.461012C1.15887 0.458305 1.15887 0.37284 1.15887 0.166934C1.11287 0.0662149 0.926667 -3.35693e-07 0.269959 -3.35693e-07Z" transform="translate(11.2856 14.2084)" fill="white"/>
</svg>

<svg width="16" height="22" fill="none" xmlns="http://www.w3.org/2000/svg"><path d="M8 9.167c0-.917-.13-.917-.444-.917-.156 0-.445 0-.445.96 0 .359.186.834.535 1.388C7.875 9.843 8 9.36 8 9.167zm-.022 3.347l-.445 1.381a9.692 9.692 0 0 1-.081.242 18.69 18.69 0 0 1 1.688-.458 12.147 12.147 0 0 1-.565-.522c-.213-.22-.412-.434-.597-.643zM3.556 17.27a.69.69 0 0 0 .444.147c.252 0 .912-.463 1.58-1.461l-.176.085c-.909.444-1.848.903-1.848 1.228z" fill="#fff"/><path d="M15.87 4.717L11.425.135A.437.437 0 0 0 11.11 0H1.778C.798 0 0 .822 0 1.833v18.334C0 21.177.798 22 1.778 22h12.444c.98 0 1.778-.822 1.778-1.833V5.042a.464.464 0 0 0-.13-.325zM12 15.583c-.398 0-1.22-.564-1.963-1.154-.929.179-2.105.464-3.051.849-.912 1.917-2.16 3.055-2.986 3.055-.641 0-1.333-.406-1.333-1.064 0-.905.937-1.363 2.356-2.056.312-.152.647-.316 1-.498.099-.05.2-.1.305-.147.128-.296.25-.617.362-.963.232-.721.44-1.36.616-1.915-.72-.965-1.084-1.795-1.084-2.48 0-1.55.725-1.877 1.334-1.877.8 0 1.333.312 1.333 1.834 0 .358-.18 1.03-.588 2.333.262.322.564.66.902 1.01.26.268.652.611 1.063.945.63-.109 1.11-.163 1.29-.163.577 0 1.777 0 1.777 1.083 0 .551-.231 1.208-1.333 1.208zm.444-11c-.49 0-.888-.411-.888-.916V1.565l2.927 3.018h-2.039z" fill="#fff"/><path d="M11.556 14.208c-.053 0-.145.008-.27.022.345.242.625.413.746.44.412-.003.412-.089.412-.295-.046-.1-.232-.167-.888-.167z" fill="#fff"/></svg>
